src/img/svg_sprite/Cards.svg

<svg xmlns="http://www.w3.org/2000/svg" viewBox="0 0 64 44"><title>Cards</title><path d="M45 44H19a4 4 0 0 1-4-4V4a4 4 0 0 1 4-4h26a4 4 0 0 1 4 4v36a4 4 0 0 1-4 4zM19 4v36h26V4zm45 31V9a4 4 0 0 0-4-4h-8v4h8v26h-8v4h8a4 4 0 0 0 4-4zm-52 0H4V9h8V5H4a4 4 0 0 0-4 4v26a4 4 0 0 0 4 4h8z" fill="#3ff"/></svg>

<svg xmlns="http://www.w3.org/2000/svg" viewBox="0 0 64 44"><defs><style>.cls-1{fill:#3ff;}</style></defs><title>Cards</title><g id="Layer_2" data-name="Layer 2"><g id="Mobile"><path id="iconCards" class="cls-1" d="M45,44H19a4,4,0,0,1-4-4V4a4,4,0,0,1,4-4H45a4,4,0,0,1,4,4V40A4,4,0,0,1,45,44ZM19,4V40H45V4ZM64,35V9a4,4,0,0,0-4-4H52V9h8V35H52v4h8A4,4,0,0,0,64,35ZM12,35H4V9h8V5H4A4,4,0,0,0,0,9V35a4,4,0,0,0,4,4h8Z"/></g></g></svg>
